X: 15588
T: GM
R: jig
M: 6/8
K: Dminor
|:"Gm"GBd "D7"cA^F|"D7"D^FA "Gm"G2e|"F"fed "C"edc|"Gm"dcB "D7"cA^F|
"Gm"GBd "D7"cA^F|"D7"D^FA "Gm"G2A|"Gm"BAG "D7"AG^F|1 "D7"D^FA "Gm"GBA:|2 "Gm" G3 G2d||
K:D
|:"D"DFA fgf|"A7"eAA A2a|"D"fdA Adf|"A7"gec Ace|
"D"DFA fgf|"A7"eAA A2 a/g/|"D"fdA "A7"gec|1 "D"dDD D2A:|2 "D"d3 d2z||

